dist/images/socials/vk.svg

<svg xmlns="http://www.w3.org/2000/svg" width="48" height="48"><path fill="#1976d2" d="M24 4a20 20 0 1 0 0 40 20 20 0 1 0 0-40Z"/><path fill="#fff" d="M35.937 18.041c.046-.151.068-.291.062-.416-.015-.362-.264-.625-.85-.625h-2.618c-.661 0-.966.4-1.144.801 0 0-1.632 3.359-3.513 5.574-.61.641-.92.625-1.25.625-.177 0-.624-.214-.624-.801v-5.185c0-.694-.173-1.014-.732-1.014h-4.649c-.407 0-.619.32-.619.641 0 .667.898.827 1 2.696v3.623c0 .88-.153 1.04-.483 1.04-.89 0-2.642-3-3.815-6.932-.254-.774-.508-1.068-1.169-1.068H12.89c-.763 0-.89.374-.89.774 0 .721.6 4.619 3.875 9.101C18.25 30.125 21.379 32 24.149 32c1.678 0 1.85-.427 1.85-1.094v-2.972c.001-.801.184-.934.718-.934.381 0 1.158.25 2.658 2 1.73 2.018 2.044 3 3.036 3h2.618c.608 0 .957-.255.971-.75a1.542 1.542 0 0 0-.056-.424c-.194-.576-1.084-1.984-2.194-3.326-.615-.743-1.222-1.479-1.501-1.879-.187-.261-.258-.445-.249-.621.009-.185.105-.361.249-.607-.026 0 3.358-4.751 3.688-6.352z"/></svg>

<svg xmlns="http://www.w3.org/2000/svg"  viewBox="0 0 48 48" width="48px" height="48px"><path fill="#1976d2" d="M24 4A20 20 0 1 0 24 44A20 20 0 1 0 24 4Z"/><path fill="#fff" d="M35.937,18.041c0.046-0.151,0.068-0.291,0.062-0.416C35.984,17.263,35.735,17,35.149,17h-2.618 c-0.661,0-0.966,0.4-1.144,0.801c0,0-1.632,3.359-3.513,5.574c-0.61,0.641-0.92,0.625-1.25,0.625C26.447,24,26,23.786,26,23.199 v-5.185C26,17.32,25.827,17,25.268,17h-4.649C20.212,17,20,17.32,20,17.641c0,0.667,0.898,0.827,1,2.696v3.623 C21,24.84,20.847,25,20.517,25c-0.89,0-2.642-3-3.815-6.932C16.448,17.294,16.194,17,15.533,17h-2.643 C12.127,17,12,17.374,12,17.774c0,0.721,0.6,4.619,3.875,9.101C18.25,30.125,21.379,32,24.149,32c1.678,0,1.85-0.427,1.85-1.094 v-2.972C26,27.133,26.183,27,26.717,27c0.381,0,1.158,0.25,2.658,2c1.73,2.018,2.044,3,3.036,3h2.618 c0.608,0,0.957-0.255,0.971-0.75c0.003-0.126-0.015-0.267-0.056-0.424c-0.194-0.576-1.084-1.984-2.194-3.326 c-0.615-0.743-1.222-1.479-1.501-1.879C32.062,25.36,31.991,25.176,32,25c0.009-0.185,0.105-0.361,0.249-0.607 C32.223,24.393,35.607,19.642,35.937,18.041z"/></svg>
